svgs/thin/car-rear.svg

<svg xmlns="http://www.w3.org/2000/svg" viewBox="0 0 512 512"><!--! Font Awesome Pro 6.6.0 by @fontawesome - https://fontawesome.com License - https://fontawesome.com/license (Commercial License) Copyright 2024 Fonticons, Inc. --><path d="M167.6 48l176.8 0c24.7 0 46.5 16.2 53.6 39.9L429.2 192 82.8 192 114 87.9C121.1 64.2 142.9 48 167.6 48zm-69 35.3l-33 110C28.3 200 0 232.7 0 272l0 80c0 20.9 13.4 38.7 32 45.3l0 2.7 0 48c0 17.7 14.3 32 32 32l32 0c17.7 0 32-14.3 32-32l0-48 256 0 0 48c0 17.7 14.3 32 32 32l32 0c17.7 0 32-14.3 32-32l0-48 0-2.7c18.6-6.6 32-24.4 32-45.3l0-80c0-39.3-28.3-72-65.7-78.7l-33-110c-9.1-30.5-37.2-51.3-69-51.3L167.6 32c-31.8 0-59.8 20.9-69 51.3zM464 384l-64 0-16 0-256 0-16 0-64 0c-17.7 0-32-14.3-32-32l0-16 56 0c13.3 0 24-10.7 24-24l0-32c0-13.3-10.7-24-24-24l-54 0c7.1-27.6 32.2-48 62-48l352 0c29.8 0 54.9 20.4 62 48l-54 0c-13.3 0-24 10.7-24 24l0 32c0 13.3 10.7 24 24 24l56 0 0 16c0 17.7-14.3 32-32 32zm-64 16l64 0 0 48c0 8.8-7.2 16-16 16l-32 0c-8.8 0-16-7.2-16-16l0-48zM48 448l0-48 64 0 0 48c0 8.8-7.2 16-16 16l-32 0c-8.8 0-16-7.2-16-16zM496 272l0 48-56 0c-4.4 0-8-3.6-8-8l0-32c0-4.4 3.6-8 8-8l56 0zM16 320l0-48 56 0c4.4 0 8 3.6 8 8l0 32c0 4.4-3.6 8-8 8l-56 0zm200-16l80 0c4.4 0 8 3.6 8 8l0 16c0 4.4-3.6 8-8 8l-80 0c-4.4 0-8-3.6-8-8l0-16c0-4.4 3.6-8 8-8zm-24 8l0 16c0 13.3 10.7 24 24 24l80 0c13.3 0 24-10.7 24-24l0-16c0-13.3-10.7-24-24-24l-80 0c-13.3 0-24 10.7-24 24z"/></svg>

<svg xmlns="http://www.w3.org/2000/svg" viewBox="0 0 512 512"><!--! Font Awesome Pro 6.4.2 by @fontawesome - https://fontawesome.com License - https://fontawesome.com/license (Commercial License) Copyright 2023 Fonticons, Inc. --><path d="M167.6 48H344.4c24.7 0 46.5 16.2 53.6 39.9L429.2 192H82.8L114 87.9C121.1 64.2 142.9 48 167.6 48zm-69 35.3l-33 110C28.3 200 0 232.7 0 272v80c0 20.9 13.4 38.7 32 45.3V400v48c0 17.7 14.3 32 32 32H96c17.7 0 32-14.3 32-32V400H384v48c0 17.7 14.3 32 32 32h32c17.7 0 32-14.3 32-32V400v-2.7c18.6-6.6 32-24.4 32-45.3V272c0-39.3-28.3-72-65.7-78.7l-33-110c-9.1-30.5-37.2-51.3-69-51.3H167.6c-31.8 0-59.8 20.9-69 51.3zM464 384H400 384 128 112 48c-17.7 0-32-14.3-32-32V336H72c13.3 0 24-10.7 24-24V280c0-13.3-10.7-24-24-24H18c7.1-27.6 32.2-48 62-48H432c29.8 0 54.9 20.4 62 48H440c-13.3 0-24 10.7-24 24v32c0 13.3 10.7 24 24 24h56v16c0 17.7-14.3 32-32 32zm-64 16h64v48c0 8.8-7.2 16-16 16H416c-8.8 0-16-7.2-16-16V400zM48 448V400h64v48c0 8.8-7.2 16-16 16H64c-8.8 0-16-7.2-16-16zM496 272v48H440c-4.4 0-8-3.6-8-8V280c0-4.4 3.6-8 8-8h56zM16 320V272H72c4.4 0 8 3.6 8 8v32c0 4.4-3.6 8-8 8H16zm200-16h80c4.4 0 8 3.6 8 8v16c0 4.4-3.6 8-8 8H216c-4.4 0-8-3.6-8-8V312c0-4.4 3.6-8 8-8zm-24 8v16c0 13.3 10.7 24 24 24h80c13.3 0 24-10.7 24-24V312c0-13.3-10.7-24-24-24H216c-13.3 0-24 10.7-24 24z"/></svg>
